!!!OTL: KOMM DU BLANKER WEIHEDEGEN
!!!ARE: Europa, Mitteleuropa, Deutschland
!!!SCT: B0546A
!!!YEM: Copyright 1995, estate of Helmut Schaffrath.
**kern
*ICvox
*Ivox
*M4/4
*k[b-]
*F:
{4cc
4cc
=1
4ff
4a
8g
8dd
8cc
8b-
=2
8b-
8a
4a}
{4g
4cc
=3
8a
8ff
8ee
8dd
4cc
4bn
=4
2cc}
{4cc
4cc
=5
8cc
8dd
8ee
8ff
8ee
8dd
8cc
8b-
=6
8b-
8a
4a}
{4dd
8cc
8b-
=7
8a
8cc
8.ff
16dd
8.cc
16b-
8.a
16g
=8
4g
4f}
{4cc
4cc
=9
4ff
4a
8g
8dd
8cc
8b-
=10
8b-
8a
4a}
{4g
4cc
=11
8a
8ff
8ee
8dd
4cc
4bn
=12
2cc}
{4cc
4cc
=13
8cc
8dd
8ee
8ff
8ee
8dd
8cc
8b-
=14
8b-
8a
4a}
{4dd
8cc
8b-
=15
8a
8cc
8.ff
16dd
8.cc
16b-
8.a
16g
=16
4g
4f}
==
!!!AGN: Studenten -, Burschenschafts - Lied, national
!!!ONB: ESAC (Essen Associative Code) Database: BOEHME
!!!AMT: simple quadruple
!!!AIN: vox
!!!EED: Helmut Schaffrath
!!!EEV: 1.0
*-
